public/piece/monarchy/wP.svg

<svg xmlns="http://www.w3.org/2000/svg" viewBox="0 0 640 640"><path fill="#353534" stroke="#353534" stroke-width=".09" d="M0 0h.06A.17.17 0 0 0 0 .06V0ZM241.83 151.87c17.9-22.71 46.21-36.86 75.15-37.23A98.64 98.64 0 0 1 379 139.12c18.83 16.36 31.07 40.11 33.26 64.98 1.3 19.15-4.98 38.18-14.77 54.46-6.09 11.24-15.39 20.21-24.02 29.48 1.43 3.71 4.14 7 7.79 8.7 11.59 5.38 23.31 10.48 34.69 16.3 6.52 3.56 13.51 6.96 18.25 12.89 3.07 3.77 3.37 9.68.21 13.5-3.97 4.99-10.55 6.53-16.47 7.87-14.2 2.83-28.71 3.49-43.13 4.38-4.1.55-8.23.57-12.35.47 1.93 21.36 3.41 42.9 8.55 63.79 2.63 10.51 6.55 21.03 13.74 29.32 6.33 7.48 14.58 12.91 22.57 18.44 5.03 3.47 9.98 7.38 13.16 12.72 4.01 6.37 4.86 14.18 4.18 21.54 7.68-.68 15.55.77 22.63 3.78 8.54 3.84 13.85 12.21 17.1 20.65 3.55 14.73 5.05 29.84 6.9 44.85a852.76 852.76 0 0 1-56.34 6.76c-14.31.32-28.61 1.01-42.92 1.48-25.03.35-50.06.16-75.08.18-14.98-.05-29.98.23-44.94-.55-11-.24-21.99-.94-32.99-1.06-19.19-1.47-38.29-3.98-57.32-6.83 1.86-14.98 3.36-30.07 6.9-44.78 3.31-8.72 8.9-17.33 17.84-21.03 6.9-2.72 14.47-4.14 21.9-3.45-.74-7.79.31-16.13 4.92-22.67 4.38-6.68 11.42-10.79 17.79-15.31 8.37-5.71 16.44-12.32 21.83-21.03 6.31-10.23 9.19-22.09 11.46-33.77 3.25-17.52 4.66-35.31 6.19-53.04-10.2.14-20.35-1.1-30.52-1.65-11.1-.99-22.39-1.83-33.01-5.42-5.25-1.77-10.76-6.01-10.64-12.07-.08-6.5 5.67-10.86 10.54-14.15 12.65-7.91 26.53-13.57 40-19.89 5.33-2 10.75-5.19 12.63-10.92-6.44-6.81-13.02-13.55-18.66-21.06-12.04-17.25-20.49-37.72-20.38-59.01a97.58 97.58 0 0 1 21.34-56.1m17.78 1.78a84.56 84.56 0 0 0-23.91 55.32 86.44 86.44 0 0 0 10.47 36.87c4.03 9.15 10.33 17.06 17.35 24.09 1.18 1.17 2.63 1.97 4.02 2.87a58.5 58.5 0 0 0 14.85 3.84c14.48 1.83 29.08 1.92 43.65 1.8 11.74-.78 23.76-.62 35.13-4.07 7.41-2.13 12.6-8.48 16.66-14.63 4.54-4.45 7.15-10.43 9.96-16.04 6.57-13.28 10.9-28.36 8.61-43.25-2.73-18.42-11.52-36.21-25.43-48.7-14-14.08-33.6-21.88-53.26-23.3a83.97 83.97 0 0 0-58.1 25.2m14.88 137.31c-2.47 9.95-10.59 17.82-20.01 21.41-13.13 6.29-26.82 11.58-39.22 19.29 17.26 4.23 35.13 3.25 52.72 4.32 27.62-.02 55.26.17 82.88-.1 4.61.2 9.29.33 13.89-.26 17.57-.52 35.38-.04 52.64-3.97-9.24-5.99-19.63-9.75-29.49-14.55-7.43-3.61-15.78-6.12-21.51-12.39a27.4 27.4 0 0 1-7.97-13.51c-3.67.48-7.34 1-11.02 1.39a339.54 339.54 0 0 1-62.15-.06c-3.6-.49-7.19-.95-10.76-1.57m11.22 60.53c-2.34 27.28-3.92 55.13-13.03 81.18a74.36 74.36 0 0 1-17.07 27c-5.86 5.56-12.37 10.35-19.04 14.88-4.26 2.98-8.87 5.91-11.56 10.5-2.26 4.44-1.8 9.66-1.08 14.43 3.21.3 6.43.64 9.66.62 3.44.58 6.95.43 10.44.46 6.67-.06 13.31.75 19.98.68 27.3 1.16 54.63.66 81.94.77 12.33-.83 24.71-.22 37.03-1.31 8.63.08 17.2-.92 25.81-1.28 1.8-6.86.76-15.41-5.57-19.63-11.62-8.53-24.29-16.22-32.94-28.05-7.54-10.05-11.84-22.09-14.7-34.22-5.14-21.67-6.48-43.97-8.68-66.06l-3.29.05c-12.28.09-24.58-.22-36.84.11-7.02-.27-14.04-.06-21.06-.13m-83.28 161.73c-4.54.39-9.43 1.15-13.04 4.16a28.32 28.32 0 0 0-5.97 10.73c-2.38 8.57-3.73 17.38-4.93 26.18 3.86.35 7.68 1.03 11.54 1.31l-.05.21c17.39 1.93 34.87 3.53 52.37 3.36 8.85 1.15 17.78.5 26.65 1.26 14.67.15 29.35.02 44.03.06 20.35-.21 40.73.51 61.07-.53 13.96-.14 27.9-1.09 41.86-1.56 12.77-.78 25.43-2.65 38.13-4.13a215.2 215.2 0 0 0-3.36-20.06c-1.23-6.18-3.3-12.54-7.82-17.12-3.57-2.63-8.13-3.14-12.39-3.72-18.79 1.14-37.58 2.45-56.39 3.27-9.02.87-18.09-.14-27.11.79-19.99.1-39.99.03-59.98.03-7.34-.65-14.71-.4-22.07-.46-15.97-.94-31.97-1.41-47.9-2.96-4.89-.17-9.76-.59-14.64-.82Z"/><path fill="#fff" stroke="#fff" stroke-width=".09" d="M259.61 153.65a83.97 83.97 0 0 1 58.1-25.2 70.27 70.27 0 0 1-6.33 4.94c-11.48 7.66-22.53 16-32.6 25.45-12.93 12.6-22.81 29.03-24.98 47.18-2.39 17.89 2.5 35.74 8.83 52.33 1.57 4.84 4.54 9.27 4.91 14.45-1.39-.9-2.84-1.7-4.02-2.87-7.02-7.03-13.32-14.94-17.35-24.09a86.44 86.44 0 0 1-10.47-36.87 84.56 84.56 0 0 1 23.91-55.32Z"/><path fill="#e8e8e8" stroke="#e8e8e8" stroke-width=".09" d="M317.71 128.45c19.66 1.42 39.26 9.22 53.26 23.3 5.11 12.93 10.81 25.73 13.89 39.36 3.5 14.4 2.79 29.6-.77 43.92-1.72 8.33-4.69 16.34-6.26 24.71-4.06 6.15-9.25 12.5-16.66 14.63-11.37 3.45-23.39 3.29-35.13 4.07-14.57.12-29.17.03-43.65-1.8a58.5 58.5 0 0 1-14.85-3.84c-.37-5.18-3.34-9.61-4.91-14.45-6.33-16.59-11.22-34.44-8.83-52.33 2.17-18.15 12.05-34.58 24.98-47.18 10.07-9.45 21.12-17.79 32.6-25.45 2.22-1.5 4.3-3.2 6.33-4.94Z"/><path fill="#afafaf" stroke="#afafaf" stroke-width=".09" d="M370.97 151.75c13.91 12.49 22.7 30.28 25.43 48.7 2.29 14.89-2.04 29.97-8.61 43.25-2.81 5.61-5.42 11.59-9.96 16.04 1.57-8.37 4.54-16.38 6.26-24.71 3.56-14.32 4.27-29.52.77-43.92-3.08-13.63-8.78-26.43-13.89-39.36Z"/><path fill="#fff" stroke="#fff" stroke-width=".09" d="M274.49 290.96c3.57.62 7.16 1.08 10.76 1.57-2.6 8.85-7.65 17.1-15.22 22.53a151.72 151.72 0 0 1-19.21 11.7c26 2.43 52.14 3.16 78.11 5.97 7.33.93 14.84.84 21.93 3.15-27.62.27-55.26.08-82.88.1-17.59-1.07-35.46-.09-52.72-4.32 12.4-7.71 26.09-13 39.22-19.29 9.42-3.59 17.54-11.46 20.01-21.41Z"/><path fill="#afafaf" stroke="#afafaf" stroke-width=".09" d="M347.4 292.59c3.68-.39 7.35-.91 11.02-1.39a27.4 27.4 0 0 0 7.97 13.51c5.73 6.27 14.08 8.78 21.51 12.39 9.86 4.8 20.25 8.56 29.49 14.55-17.26 3.93-35.07 3.45-52.64 3.97 9.44-.9 18.38-4.13 27.26-7.26-9.84-5.42-20.63-9.14-29.87-15.62-6.98-4.87-11.9-12.2-14.74-20.15Z"/><path fill="#e8e8e8" stroke="#e8e8e8" stroke-width=".09" d="M285.25 292.53a339.54 339.54 0 0 0 62.15.06c2.84 7.95 7.76 15.28 14.74 20.15 9.24 6.48 20.03 10.2 29.87 15.62-8.88 3.13-17.82 6.36-27.26 7.26-4.6.59-9.28.46-13.89.26-7.09-2.31-14.6-2.22-21.93-3.15-25.97-2.81-52.11-3.54-78.11-5.97a151.72 151.72 0 0 0 19.21-11.7c7.57-5.43 12.62-13.68 15.22-22.53Z"/><path fill="#fff" stroke="#fff" stroke-width=".09" d="M285.71 351.49c7.02.07 14.04-.14 21.06.13-2.68.88-5.55 1.45-7.94 2.98-2.08 19.79-3.36 39.74-7.03 59.34-3.21 16.97-7.61 34.53-18.57 48.32-6.34 8.4-14.86 14.81-23.67 20.4-3.51 2.38-7.31 4.53-10.13 7.76-2.26 2.61-2.25 6.25-2.8 9.48l-3.04.2c-3.23.02-6.45-.32-9.66-.62-.72-4.77-1.18-9.99 1.08-14.43 2.69-4.59 7.3-7.52 11.56-10.5 6.67-4.53 13.18-9.32 19.04-14.88a74.36 74.36 0 0 0 17.07-27c9.11-26.05 10.69-53.9 13.03-81.18Z"/><path fill="#e8e8e8" stroke="#e8e8e8" stroke-width=".09" d="M306.77 351.62c12.26-.33 24.56-.02 36.84-.11-1.22 26.13-3.24 52.85 3.3 78.47 4.27 17.02 13.62 32.04 21.89 47.31 1.9 3.97 4.49 8.08 4.15 12.65-.79 3.47-5.09 3.31-7.87 3.78-28.64 2.36-57.45 2.05-86.05 5.08-5.01.7-10.31.26-15.02 2.44-6.67.07-13.31-.74-19.98-.68-3.49-.03-7 .12-10.44-.46l3.04-.2c.55-3.23.54-6.87 2.8-9.48 2.82-3.23 6.62-5.38 10.13-7.76 8.81-5.59 17.33-12 23.67-20.4 10.96-13.79 15.36-31.35 18.57-48.32 3.67-19.6 4.95-39.55 7.03-59.34 2.39-1.53 5.26-2.1 7.94-2.98Z"/><path fill="#afafaf" stroke="#afafaf" stroke-width=".09" d="m343.61 351.51 3.29-.05c2.2 22.09 3.54 44.39 8.68 66.06 2.86 12.13 7.16 24.17 14.7 34.22 8.65 11.83 21.32 19.52 32.94 28.05 6.33 4.22 7.37 12.77 5.57 19.63-8.61.36-17.18 1.36-25.81 1.28-12.32 1.09-24.7.48-37.03 1.31-27.31-.11-54.64.39-81.94-.77 4.71-2.18 10.01-1.74 15.02-2.44 28.6-3.03 57.41-2.72 86.05-5.08 2.78-.47 7.08-.31 7.87-3.78.34-4.57-2.25-8.68-4.15-12.65-8.27-15.27-17.62-30.29-21.89-47.31-6.54-25.62-4.52-52.34-3.3-78.47Z"/><path fill="#fff" stroke="#fff" stroke-width=".09" d="M202.43 513.22c4.88.23 9.75.65 14.64.82-3.9 3.71-9.49 4.88-13.21 8.79-3.96 4.12-6.32 9.47-8.27 14.77a225.46 225.46 0 0 0-5.56 18c-3.86-.28-7.68-.96-11.54-1.31 1.2-8.8 2.55-17.61 4.93-26.18a28.32 28.32 0 0 1 5.97-10.73c3.61-3.01 8.5-3.77 13.04-4.16Z"/><path fill="#e8e8e8" stroke="#e8e8e8" stroke-width=".09" d="M217.07 514.04c15.93 1.55 31.93 2.02 47.9 2.96 7.36.06 14.73-.19 22.07.46 19.99 0 39.99.07 59.98-.03 9.02-.93 18.09.08 27.11-.79 18.81-.82 37.6-2.13 56.39-3.27 3.19 8.87 7.64 18.01 6.46 27.66-.66 4.55-5.85 5.64-9.6 6.38-18.95 3.2-38.22 3.46-57.37 4.53a13643.4 13643.4 0 0 0-101.05 5.36c-8.87.67-17.8.57-26.61 1.87-17.5.17-34.98-1.43-52.37-3.36l.05-.21c1.53-6.1 3.53-12.06 5.56-18 1.95-5.3 4.31-10.65 8.27-14.77 3.72-3.91 9.31-5.08 13.21-8.79Z"/><path fill="#afafaf" stroke="#afafaf" stroke-width=".09" d="M430.52 513.37c4.26.58 8.82 1.09 12.39 3.72 4.52 4.58 6.59 10.94 7.82 17.12a215.2 215.2 0 0 1 3.36 20.06c-12.7 1.48-25.36 3.35-38.13 4.13-13.96.47-27.9 1.42-41.86 1.56-20.34 1.04-40.72.32-61.07.53-14.68-.04-29.36.09-44.03-.06-8.87-.76-17.8-.11-26.65-1.26 8.81-1.3 17.74-1.2 26.61-1.87 33.68-1.88 67.36-3.73 101.05-5.36 19.15-1.07 38.42-1.33 57.37-4.53 3.75-.74 8.94-1.83 9.6-6.38 1.18-9.65-3.27-18.79-6.46-27.66Z"/></svg>

<?xml version="1.0" encoding="UTF-8" ?>
<!DOCTYPE svg PUBLIC "-//W3C//DTD SVG 1.1//EN" "http://www.w3.org/Graphics/SVG/1.1/DTD/svg11.dtd">
<svg width="640pt" height="640pt" viewBox="0 0 640 640" version="1.1" xmlns="http://www.w3.org/2000/svg">
<path fill="#353534" stroke="#353534" stroke-width="0.09375" opacity="1.00" d=" M 0.00 0.00 L 0.06 0.00 C 0.04 0.01 0.01 0.04 0.00 0.06 L 0.00 0.00 Z" />
<path fill="#353534" stroke="#353534" stroke-width="0.09375" opacity="1.00" d=" M 241.83 151.87 C 259.73 129.16 288.04 115.01 316.98 114.64 C 339.67 115.25 361.99 124.11 379.00 139.12 C 397.83 155.48 410.07 179.23 412.26 204.10 C 413.56 223.25 407.28 242.28 397.49 258.56 C 391.40 269.80 382.10 278.77 373.47 288.04 C 374.90 291.75 377.61 295.04 381.26 296.74 C 392.85 302.12 404.57 307.22 415.95 313.04 C 422.47 316.60 429.46 320.00 434.20 325.93 C 437.27 329.70 437.57 335.61 434.41 339.43 C 430.44 344.42 423.86 345.96 417.94 347.30 C 403.74 350.13 389.23 350.79 374.81 351.68 C 370.71 352.23 366.58 352.25 362.46 352.15 C 364.39 373.51 365.87 395.05 371.01 415.94 C 373.64 426.45 377.56 436.97 384.75 445.26 C 391.08 452.74 399.33 458.17 407.32 463.70 C 412.35 467.17 417.30 471.08 420.48 476.42 C 424.49 482.79 425.34 490.60 424.66 497.96 C 432.34 497.28 440.21 498.73 447.29 501.74 C 455.83 505.58 461.14 513.95 464.39 522.39 C 467.94 537.12 469.44 552.23 471.29 567.24 C 452.58 570.03 433.81 572.46 414.95 574.00 C 400.64 574.32 386.34 575.01 372.03 575.48 C 347.00 575.83 321.97 575.64 296.95 575.66 C 281.97 575.61 266.97 575.89 252.01 575.11 C 241.01 574.87 230.02 574.17 219.02 574.05 C 199.83 572.58 180.73 570.07 161.70 567.22 C 163.56 552.24 165.06 537.15 168.60 522.44 C 171.91 513.72 177.50 505.11 186.44 501.41 C 193.34 498.69 200.91 497.27 208.34 497.96 C 207.60 490.17 208.65 481.83 213.26 475.29 C 217.64 468.61 224.68 464.50 231.05 459.98 C 239.42 454.27 247.49 447.66 252.88 438.95 C 259.19 428.72 262.07 416.86 264.34 405.18 C 267.59 387.66 269.00 369.87 270.53 352.14 C 260.33 352.28 250.18 351.04 240.01 350.49 C 228.91 349.50 217.62 348.66 207.00 345.07 C 201.75 343.30 196.24 339.06 196.36 333.00 C 196.28 326.50 202.03 322.14 206.90 318.85 C 219.55 310.94 233.43 305.28 246.90 298.96 C 252.23 296.96 257.65 293.77 259.53 288.04 C 253.09 281.23 246.51 274.49 240.87 266.98 C 228.83 249.73 220.38 229.26 220.49 207.97 C 221.45 187.64 229.08 167.72 241.83 151.87 M 259.61 153.65 C 245.21 168.34 236.51 188.41 235.70 208.97 C 236.30 221.88 240.05 234.49 246.17 245.84 C 250.20 254.99 256.50 262.90 263.52 269.93 C 264.70 271.10 266.15 271.90 267.54 272.80 C 272.29 274.73 277.29 276.01 282.39 276.64 C 296.87 278.47 311.47 278.56 326.04 278.44 C 337.78 277.66 349.80 277.82 361.17 274.37 C 368.58 272.24 373.77 265.89 377.83 259.74 C 382.37 255.29 384.98 249.31 387.79 243.70 C 394.36 230.42 398.69 215.34 396.40 200.45 C 393.67 182.03 384.88 164.24 370.97 151.75 C 356.97 137.67 337.37 129.87 317.71 128.45 C 296.05 128.83 274.70 138.10 259.61 153.65 M 274.49 290.96 C 272.02 300.91 263.90 308.78 254.48 312.37 C 241.35 318.66 227.66 323.95 215.26 331.66 C 232.52 335.89 250.39 334.91 267.98 335.98 C 295.60 335.96 323.24 336.15 350.86 335.88 C 355.47 336.08 360.15 336.21 364.75 335.62 C 382.32 335.10 400.13 335.58 417.39 331.65 C 408.15 325.66 397.76 321.90 387.90 317.10 C 380.47 313.49 372.12 310.98 366.39 304.71 C 362.42 301.12 359.76 296.35 358.42 291.20 C 354.75 291.68 351.08 292.20 347.40 292.59 C 326.73 294.44 305.91 294.48 285.25 292.53 C 281.65 292.04 278.06 291.58 274.49 290.96 M 285.71 351.49 C 283.37 378.77 281.79 406.62 272.68 432.67 C 269.10 442.81 263.11 451.99 255.61 459.67 C 249.75 465.23 243.24 470.02 236.57 474.55 C 232.31 477.53 227.70 480.46 225.01 485.05 C 222.75 489.49 223.21 494.71 223.93 499.48 C 227.14 499.78 230.36 500.12 233.59 500.10 C 237.03 500.68 240.54 500.53 244.03 500.56 C 250.70 500.50 257.34 501.31 264.01 501.24 C 291.31 502.40 318.64 501.90 345.95 502.01 C 358.28 501.18 370.66 501.79 382.98 500.70 C 391.61 500.78 400.18 499.78 408.79 499.42 C 410.59 492.56 409.55 484.01 403.22 479.79 C 391.60 471.26 378.93 463.57 370.28 451.74 C 362.74 441.69 358.44 429.65 355.58 417.52 C 350.44 395.85 349.10 373.55 346.90 351.46 C 345.80 351.47 344.70 351.49 343.61 351.51 C 331.33 351.60 319.03 351.29 306.77 351.62 C 299.75 351.35 292.73 351.56 285.71 351.49 M 202.43 513.22 C 197.89 513.61 193.00 514.37 189.39 517.38 C 186.63 520.43 184.62 524.17 183.42 528.11 C 181.04 536.68 179.69 545.49 178.49 554.29 C 182.35 554.64 186.17 555.32 190.03 555.60 L 189.98 555.81 C 207.37 557.74 224.85 559.34 242.35 559.17 C 251.20 560.32 260.13 559.67 269.00 560.43 C 283.67 560.58 298.35 560.45 313.03 560.49 C 333.38 560.28 353.76 561.00 374.10 559.96 C 388.06 559.82 402.00 558.87 415.96 558.40 C 428.73 557.62 441.39 555.75 454.09 554.27 C 453.21 547.54 452.24 540.82 450.73 534.21 C 449.50 528.03 447.43 521.67 442.91 517.09 C 439.34 514.46 434.78 513.95 430.52 513.37 C 411.73 514.51 392.94 515.82 374.13 516.64 C 365.11 517.51 356.04 516.50 347.02 517.43 C 327.03 517.53 307.03 517.46 287.04 517.46 C 279.70 516.81 272.33 517.06 264.97 517.00 C 249.00 516.06 233.00 515.59 217.07 514.04 C 212.18 513.87 207.31 513.45 202.43 513.22 Z" />
<path fill="#ffffff" stroke="#ffffff" stroke-width="0.09375" opacity="1.00" d=" M 259.61 153.65 C 274.70 138.10 296.05 128.83 317.71 128.45 C 315.68 130.19 313.60 131.89 311.38 133.39 C 299.90 141.05 288.85 149.39 278.78 158.84 C 265.85 171.44 255.97 187.87 253.80 206.02 C 251.41 223.91 256.30 241.76 262.63 258.35 C 264.20 263.19 267.17 267.62 267.54 272.80 C 266.15 271.90 264.70 271.10 263.52 269.93 C 256.50 262.90 250.20 254.99 246.17 245.84 C 240.05 234.49 236.30 221.88 235.70 208.97 C 236.51 188.41 245.21 168.34 259.61 153.65 Z" />
<path fill="#e8e8e8" stroke="#e8e8e8" stroke-width="0.09375" opacity="1.00" d=" M 317.71 128.45 C 337.37 129.87 356.97 137.67 370.97 151.75 C 376.08 164.68 381.78 177.48 384.86 191.11 C 388.36 205.51 387.65 220.71 384.09 235.03 C 382.37 243.36 379.40 251.37 377.83 259.74 C 373.77 265.89 368.58 272.24 361.17 274.37 C 349.80 277.82 337.78 277.66 326.04 278.44 C 311.47 278.56 296.87 278.47 282.39 276.64 C 277.29 276.01 272.29 274.73 267.54 272.80 C 267.17 267.62 264.20 263.19 262.63 258.35 C 256.30 241.76 251.41 223.91 253.80 206.02 C 255.97 187.87 265.85 171.44 278.78 158.84 C 288.85 149.39 299.90 141.05 311.38 133.39 C 313.60 131.89 315.68 130.19 317.71 128.45 Z" />
<path fill="#afafaf" stroke="#afafaf" stroke-width="0.09375" opacity="1.00" d=" M 370.97 151.75 C 384.88 164.24 393.67 182.03 396.40 200.45 C 398.69 215.34 394.36 230.42 387.79 243.70 C 384.98 249.31 382.37 255.29 377.83 259.74 C 379.40 251.37 382.37 243.36 384.09 235.03 C 387.65 220.71 388.36 205.51 384.86 191.11 C 381.78 177.48 376.08 164.68 370.97 151.75 Z" />
<path fill="#ffffff" stroke="#ffffff" stroke-width="0.09375" opacity="1.00" d=" M 274.49 290.96 C 278.06 291.58 281.65 292.04 285.25 292.53 C 282.65 301.38 277.60 309.63 270.03 315.06 C 263.97 319.49 257.46 323.28 250.82 326.76 C 276.82 329.19 302.96 329.92 328.93 332.73 C 336.26 333.66 343.77 333.57 350.86 335.88 C 323.24 336.15 295.60 335.96 267.98 335.98 C 250.39 334.91 232.52 335.89 215.26 331.66 C 227.66 323.95 241.35 318.66 254.48 312.37 C 263.90 308.78 272.02 300.91 274.49 290.96 Z" />
<path fill="#afafaf" stroke="#afafaf" stroke-width="0.09375" opacity="1.00" d=" M 347.40 292.59 C 351.08 292.20 354.75 291.68 358.42 291.20 C 359.76 296.35 362.42 301.12 366.39 304.71 C 372.12 310.98 380.47 313.49 387.90 317.10 C 397.76 321.90 408.15 325.66 417.39 331.65 C 400.13 335.58 382.32 335.10 364.75 335.62 C 374.19 334.72 383.13 331.49 392.01 328.36 C 382.17 322.94 371.38 319.22 362.14 312.74 C 355.16 307.87 350.24 300.54 347.40 292.59 Z" />
<path fill="#e8e8e8" stroke="#e8e8e8" stroke-width="0.09375" opacity="1.00" d=" M 285.25 292.53 C 305.91 294.48 326.73 294.44 347.40 292.59 C 350.24 300.54 355.16 307.87 362.14 312.74 C 371.38 319.22 382.17 322.94 392.01 328.36 C 383.13 331.49 374.19 334.72 364.75 335.62 C 360.15 336.21 355.47 336.08 350.86 335.88 C 343.77 333.57 336.26 333.66 328.93 332.73 C 302.96 329.92 276.82 329.19 250.82 326.76 C 257.46 323.28 263.97 319.49 270.03 315.06 C 277.60 309.63 282.65 301.38 285.25 292.53 Z" />
<path fill="#ffffff" stroke="#ffffff" stroke-width="0.09375" opacity="1.00" d=" M 285.71 351.49 C 292.73 351.56 299.75 351.35 306.77 351.62 C 304.09 352.50 301.22 353.07 298.83 354.60 C 296.75 374.39 295.47 394.34 291.80 413.94 C 288.59 430.91 284.19 448.47 273.23 462.26 C 266.89 470.66 258.37 477.07 249.56 482.66 C 246.05 485.04 242.25 487.19 239.43 490.42 C 237.17 493.03 237.18 496.67 236.63 499.90 C 235.87 499.95 234.35 500.05 233.59 500.10 C 230.36 500.12 227.14 499.78 223.93 499.48 C 223.21 494.71 222.75 489.49 225.01 485.05 C 227.70 480.46 232.31 477.53 236.57 474.55 C 243.24 470.02 249.75 465.23 255.61 459.67 C 263.11 451.99 269.10 442.81 272.68 432.67 C 281.79 406.62 283.37 378.77 285.71 351.49 Z" />
<path fill="#e8e8e8" stroke="#e8e8e8" stroke-width="0.09375" opacity="1.00" d=" M 306.77 351.62 C 319.03 351.29 331.33 351.60 343.61 351.51 C 342.39 377.64 340.37 404.36 346.91 429.98 C 351.18 447.00 360.53 462.02 368.80 477.29 C 370.70 481.26 373.29 485.37 372.95 489.94 C 372.16 493.41 367.86 493.25 365.08 493.72 C 336.44 496.08 307.63 495.77 279.03 498.80 C 274.02 499.50 268.72 499.06 264.01 501.24 C 257.34 501.31 250.70 500.50 244.03 500.56 C 240.54 500.53 237.03 500.68 233.59 500.10 C 234.35 500.05 235.87 499.95 236.63 499.90 C 237.18 496.67 237.17 493.03 239.43 490.42 C 242.25 487.19 246.05 485.04 249.56 482.66 C 258.37 477.07 266.89 470.66 273.23 462.26 C 284.19 448.47 288.59 430.91 291.80 413.94 C 295.47 394.34 296.75 374.39 298.83 354.60 C 301.22 353.07 304.09 352.50 306.77 351.62 Z" />
<path fill="#afafaf" stroke="#afafaf" stroke-width="0.09375" opacity="1.00" d=" M 343.61 351.51 C 344.70 351.49 345.80 351.47 346.90 351.46 C 349.10 373.55 350.44 395.85 355.58 417.52 C 358.44 429.65 362.74 441.69 370.28 451.74 C 378.93 463.57 391.60 471.26 403.22 479.79 C 409.55 484.01 410.59 492.56 408.79 499.42 C 400.18 499.78 391.61 500.78 382.98 500.70 C 370.66 501.79 358.28 501.18 345.95 502.01 C 318.64 501.90 291.31 502.40 264.01 501.24 C 268.72 499.06 274.02 499.50 279.03 498.80 C 307.63 495.77 336.44 496.08 365.08 493.72 C 367.86 493.25 372.16 493.41 372.95 489.94 C 373.29 485.37 370.70 481.26 368.80 477.29 C 360.53 462.02 351.18 447.00 346.91 429.98 C 340.37 404.36 342.39 377.64 343.61 351.51 Z" />
<path fill="#ffffff" stroke="#ffffff" stroke-width="0.09375" opacity="1.00" d=" M 202.43 513.22 C 207.31 513.45 212.18 513.87 217.07 514.04 C 213.17 517.75 207.58 518.92 203.86 522.83 C 199.90 526.95 197.54 532.30 195.59 537.60 C 193.56 543.54 191.56 549.50 190.03 555.60 C 186.17 555.32 182.35 554.64 178.49 554.29 C 179.69 545.49 181.04 536.68 183.42 528.11 C 184.62 524.17 186.63 520.43 189.39 517.38 C 193.00 514.37 197.89 513.61 202.43 513.22 Z" />
<path fill="#e8e8e8" stroke="#e8e8e8" stroke-width="0.09375" opacity="1.00" d=" M 217.07 514.04 C 233.00 515.59 249.00 516.06 264.97 517.00 C 272.33 517.06 279.70 516.81 287.04 517.46 C 307.03 517.46 327.03 517.53 347.02 517.43 C 356.04 516.50 365.11 517.51 374.13 516.64 C 392.94 515.82 411.73 514.51 430.52 513.37 C 433.71 522.24 438.16 531.38 436.98 541.03 C 436.32 545.58 431.13 546.67 427.38 547.41 C 408.43 550.61 389.16 550.87 370.01 551.94 C 336.32 553.57 302.64 555.42 268.96 557.30 C 260.09 557.97 251.16 557.87 242.35 559.17 C 224.85 559.34 207.37 557.74 189.98 555.81 L 190.03 555.60 C 191.56 549.50 193.56 543.54 195.59 537.60 C 197.54 532.30 199.90 526.95 203.86 522.83 C 207.58 518.92 213.17 517.75 217.07 514.04 Z" />
<path fill="#afafaf" stroke="#afafaf" stroke-width="0.09375" opacity="1.00" d=" M 430.52 513.37 C 434.78 513.95 439.34 514.46 442.91 517.09 C 447.43 521.67 449.50 528.03 450.73 534.21 C 452.24 540.82 453.21 547.54 454.09 554.27 C 441.39 555.75 428.73 557.62 415.96 558.40 C 402.00 558.87 388.06 559.82 374.10 559.96 C 353.76 561.00 333.38 560.28 313.03 560.49 C 298.35 560.45 283.67 560.58 269.00 560.43 C 260.13 559.67 251.20 560.32 242.35 559.17 C 251.16 557.87 260.09 557.97 268.96 557.30 C 302.64 555.42 336.32 553.57 370.01 551.94 C 389.16 550.87 408.43 550.61 427.38 547.41 C 431.13 546.67 436.32 545.58 436.98 541.03 C 438.16 531.38 433.71 522.24 430.52 513.37 Z" />
</svg>
